packages/foundations/assets/icons/functional/images/business & payment/shopping_cart_disabled_24.svg

<svg width="24" height="24" viewBox="0 0 24 24" fill="none" xmlns="http://www.w3.org/2000/svg">
<g clip-path="url(#clip0_2202_1401)">
<path fill-rule="evenodd" clip-rule="evenodd" d="M8.98641 19.2497H8.99841C9.68641 19.2497 10.2484 19.8127 10.2484 20.4997C10.2484 21.1877 9.68541 21.7497 8.99841 21.7497C8.35341 21.7497 7.81841 21.2557 7.75441 20.6267L7.74941 20.4887L8.98641 19.2497ZM17.4984 19.2497C18.1864 19.2497 18.7484 19.8127 18.7484 20.4997C18.7484 21.1877 18.1854 21.7497 17.4984 21.7497C16.8104 21.7497 16.2484 21.1867 16.2484 20.4997C16.2484 19.8117 16.8114 19.2497 17.4984 19.2497ZM21.4514 2.54365C21.8114 2.90365 21.8764 3.53065 21.4514 3.95765C16.2879 9.12581 11.1226 14.2921 5.95541 19.4567C5.76789 19.6441 5.51358 19.7494 5.24841 19.7494C4.98325 19.7494 4.72894 19.6441 4.54141 19.4567C4.3554 19.2684 4.25109 19.0143 4.25109 18.7497C4.25109 18.485 4.3554 18.2309 4.54141 18.0427C5.39931 17.1806 6.25898 16.3202 7.12041 15.4617L5.37341 5.59365C5.34165 5.35941 5.22588 5.14469 5.04763 4.98943C4.86938 4.83418 4.6408 4.74896 4.40441 4.74965H3.24841C2.68541 4.74965 2.24841 4.31165 2.24841 3.74965C2.24841 3.21865 2.68641 2.74965 3.24841 2.74965H4.40441C5.71841 2.74965 6.93641 3.24965 7.24841 4.84365L17.7364 4.84265L20.0364 2.54365C20.1293 2.45068 20.2396 2.37692 20.361 2.32659C20.4824 2.27627 20.6125 2.25037 20.7439 2.25037C20.8753 2.25037 21.0055 2.27627 21.1269 2.32659C21.2483 2.37692 21.3585 2.45068 21.4514 2.54365ZM12.4534 15.7797H17.8734C18.4364 15.7797 18.9044 16.2177 18.9044 16.7797C18.9044 17.3117 18.4364 17.7487 17.8734 17.7487H10.4864L12.4534 15.7797ZM21.7494 6.47965C21.7564 6.61965 21.7464 6.76165 21.7174 6.90465L20.7484 10.9047C20.6413 11.4262 20.3719 11.9005 19.979 12.2597C19.586 12.6189 19.0895 12.8447 18.5604 12.9047L14.9274 13.3047L17.2164 11.0137L18.1864 10.9047C18.2794 10.8938 18.3676 10.8575 18.4413 10.7998C18.515 10.7421 18.5715 10.6653 18.6044 10.5777L18.9104 9.31865L21.7504 6.48065L21.7494 6.47965ZM15.8004 6.77865L7.53041 6.77965L8.49841 11.9987L10.8474 11.7327L15.8004 6.77865Z" fill="#1A1C1F"/>
</g>
<defs>
<clipPath id="clip0_2202_1401">
<rect width="24" height="24" fill="white"/>
</clipPath>
</defs>
</svg>

<svg xmlns="http://www.w3.org/2000/svg" width="24" height="24" fill="none"><g clip-path="url(#a)"><path fill="#1A1C1F" fill-rule="evenodd" d="M8.986 19.25h.012c.688 0 1.25.563 1.25 1.25s-.563 1.25-1.25 1.25c-.645 0-1.18-.494-1.244-1.123l-.005-.138zm8.512 0c.688 0 1.25.563 1.25 1.25s-.563 1.25-1.25 1.25-1.25-.563-1.25-1.25.563-1.25 1.25-1.25m3.953-16.706c.36.36.425.987 0 1.414A31233 31233 0 0 1 5.955 19.457a1 1 0 0 1-1.414 0 1.006 1.006 0 0 1 0-1.414q1.287-1.293 2.58-2.581L5.372 5.594a.975.975 0 0 0-.969-.844H3.248c-.563 0-1-.438-1-1 0-.531.438-1 1-1h1.156c1.314 0 2.532.5 2.844 2.094l10.488-.001 2.3-2.3a1 1 0 0 1 1.415 0M12.453 15.78h5.42c.563 0 1.031.438 1.031 1 0 .532-.468.969-1.03.969h-7.388zm9.296-9.3q.011.21-.032.425l-.969 4a2.52 2.52 0 0 1-2.188 2l-3.633.4 2.29-2.291.97-.11a.51.51 0 0 0 .417-.326l.306-1.26 2.84-2.837zm-5.949.299H7.53L8.498 12l2.35-.266z" clip-rule="evenodd"/></g><defs><clipPath id="a"><path fill="#fff" d="M0 0h24v24H0z"/></clipPath></defs></svg>
